images/mAAPL.svg

<svg height="250" viewBox="0 0 250 250" width="250" xmlns="http://www.w3.org/2000/svg"><path d="m204.617188 172.480469c-2.933594 6.933593-6.40625 13.3125-10.429688 19.179687-5.484375 7.996094-9.972656 13.535156-13.433594 16.605469-5.367187 5.046875-11.113281 7.632813-17.269531 7.777344-4.417969 0-9.746094-1.285157-15.949219-3.894531-6.222656-2.59375-11.941406-3.882813-17.167968-3.882813-5.484376 0-11.367188 1.289063-17.660157 3.882813-6.300781 2.609374-11.375 3.96875-15.257812 4.105468-5.898438.257813-11.78125-2.402344-17.65625-7.988281-3.746094-3.339844-8.433594-9.074219-14.050781-17.191406-6.023438-8.671875-10.980469-18.726563-14.859376-30.191407-4.15625-12.382812-6.238281-24.371093-6.238281-35.980468 0-13.296875 2.808594-24.765625 8.433594-34.375 4.421875-7.71875 10.304687-13.808594 17.667969-18.28125 7.363281-4.46875 15.320312-6.746094 23.886718-6.890625 4.6875 0 10.835938 1.480469 18.472657 4.394531 7.621093 2.925781 12.511719 4.410156 14.65625 4.410156 1.601562 0 7.035156-1.734375 16.25-5.191406 8.710937-3.207031 16.0625-4.535156 22.085937-4.011719 16.320313 1.347657 28.582032 7.925781 36.734375 19.78125-14.59375 9.046875-21.816406 21.71875-21.671875 37.96875.132813 12.660157 4.621094 23.195313 13.445313 31.5625 4 3.882813 8.46875 6.882813 13.4375 9.011719-1.078125 3.199219-2.214844 6.261719-3.425781 9.199219zm-37.429688-150.652344c0 9.921875-3.546875 19.1875-10.609375 27.761719-8.527344 10.195312-18.839844 16.085937-30.023437 15.15625-.140626-1.191406-.222657-2.445313-.222657-3.761719 0-9.523437 4.054688-19.71875 11.253907-28.054687 3.59375-4.21875 8.167968-7.730469 13.710937-10.527344 5.53125-2.757813 10.765625-4.285156 15.683594-4.546875.144531 1.328125.207031 2.65625.207031 3.972656zm0 0" fill="#adadad"/></svg>

<svg xmlns="http://www.w3.org/2000/svg" xmlns:xlink="http://www.w3.org/1999/xlink" width="250px" height="250px" viewBox="0 0 250 250" version="1.1">
<g id="surface1">
<path style=" stroke:none;fill-rule:nonzero;fill:rgb(67.843139%,67.843139%,67.843139%);fill-opacity:1;" d="M 204.617188 172.480469 C 201.683594 179.414062 198.210938 185.792969 194.1875 191.660156 C 188.703125 199.65625 184.214844 205.195312 180.753906 208.265625 C 175.386719 213.3125 169.640625 215.898438 163.484375 216.042969 C 159.066406 216.042969 153.738281 214.757812 147.535156 212.148438 C 141.3125 209.554688 135.59375 208.265625 130.367188 208.265625 C 124.882812 208.265625 119 209.554688 112.707031 212.148438 C 106.40625 214.757812 101.332031 216.117188 97.449219 216.253906 C 91.550781 216.511719 85.667969 213.851562 79.792969 208.265625 C 76.046875 204.925781 71.359375 199.191406 65.742188 191.074219 C 59.71875 182.402344 54.761719 172.347656 50.882812 160.882812 C 46.726562 148.5 44.644531 136.511719 44.644531 124.902344 C 44.644531 111.605469 47.453125 100.136719 53.078125 90.527344 C 57.5 82.808594 63.382812 76.71875 70.746094 72.246094 C 78.109375 67.777344 86.066406 65.5 94.632812 65.355469 C 99.320312 65.355469 105.46875 66.835938 113.105469 69.75 C 120.726562 72.675781 125.617188 74.160156 127.761719 74.160156 C 129.363281 74.160156 134.796875 72.425781 144.011719 68.96875 C 152.722656 65.761719 160.074219 64.433594 166.097656 64.957031 C 182.417969 66.304688 194.679688 72.882812 202.832031 84.738281 C 188.238281 93.785156 181.015625 106.457031 181.160156 122.707031 C 181.292969 135.367188 185.78125 145.902344 194.605469 154.269531 C 198.605469 158.152344 203.074219 161.152344 208.042969 163.28125 C 206.964844 166.480469 205.828125 169.542969 204.617188 172.480469 Z M 167.1875 21.828125 C 167.1875 31.75 163.640625 41.015625 156.578125 49.589844 C 148.050781 59.785156 137.738281 65.675781 126.554688 64.746094 C 126.414062 63.554688 126.332031 62.300781 126.332031 60.984375 C 126.332031 51.460938 130.386719 41.265625 137.585938 32.929688 C 141.179688 28.710938 145.753906 25.199219 151.296875 22.402344 C 156.828125 19.644531 162.0625 18.117188 166.980469 17.855469 C 167.125 19.183594 167.1875 20.511719 167.1875 21.828125 Z M 167.1875 21.828125 "/>
</g>
</svg>
